X:1
T: Paddy's Leather Breeches
C:
R:Jig
Q:180
K:A
M:6/8
L:1/16
|:B2BB3 f4e2|f2BB3 f4e2|B2BB3 f4e2|c2AA3 e4c2|
B2BB3 f4e2|f2BB3 f4e2|f2ga3 e2fa3|c2AA3 e4c2:|
|:a6 f4e2|f2BB3 f4e2|a6f4e2|c2AA3 e4c2|
a6f4e2|f2BB3 f4e2|f2ga3 e2fa3|c2AA3 e4c2:|
